X: 42365
T: Welcome To The Country
R: reel
M: 4/4
K: Gmajor
d2 Bc dBAF|B.e.ed egfe|d2 Bc dBAF|EGF^D E4|
d2 Bc dBAF|B.e.ed egfe|d2 Bc dBAF|EGF^D E4|
B2 GE FD{A}DA|B2 GE FBAc|B2 GE FED.d|.dBAF E2E2|
B2 GE FD{A}DA|(3(.B.c.B) GE FBAc|Bd^ce defe|dBAF E2E2||

